build/img/logo.svg

<?xml version="1.0" encoding="UTF-8"?>
<svg width="30px" height="27px" viewBox="0 0 30 27" version="1.1" xmlns="http://www.w3.org/2000/svg" xmlns:xlink="http://www.w3.org/1999/xlink">
    <title>Untitled</title>
    <g id="Page-1" stroke="none" stroke-width="1" fill="none" fill-rule="evenodd">
        <path d="M13,0 L19,7 L19,10 L26.9931517,10 C28.6640085,10 30,11.3426021 30,12.9987856 L30,12.9987856 L30,20.0012144 C30,21.6577357 28.6537881,23 26.9931517,23 L26.9931517,23 L19,23 L19,25.0092049 C19,26.1017876 18.1057238,27 17.0025781,27 L17.0025781,27 L1.99742191,27 C0.89092539,27 0,26.1012878 0,24.9926701 L0,24.9926701 L0,2.00732994 C0,0.89833832 0.89666625,0 2.00276013,0 L2.00276013,0 L13,0 Z M12,1 L1.9955775,1 C1.44573523,1 1,1.45526288 1,1.99545703 L1,1.99545703 L1,25.004543 C1,25.5543187 1.45470893,26 1.9999602,26 L1.9999602,26 L17.0000398,26 C17.5523026,26 18,25.5550537 18,25.0066023 L18,25.0066023 L18,23 L10.0068483,23 C8.3359915,23 7,21.6573979 7,20.0012144 L7,20.0012144 L7,12.9987856 C7,11.3422643 8.3462119,10 10.0068483,10 L10.0068483,10 L18,10 L18,8 L13.9979131,8 C12.8944962,8 12,7.1134452 12,5.99408095 L12,5.99408095 L12,1 Z M13,1.5 L13,5.99121523 C13,6.54835167 13.4506511,7 13.9967388,7 L17.6999512,7 L13,1.5 Z M9.9945615,11 C8.8929956,11 8,11.9001762 8,12.992017 L8,20.007983 C8,21.1081436 8.9023438,22 9.9945615,22 L27.0054385,22 C28.1070044,22 29,21.0998238 29,20.007983 L29,12.992017 C29,11.8918564 28.0976562,11 27.0054385,11 L9.9945615,11 L9.9945615,11 Z M22.2451185,13 C23.3561002,13 24.25,13.8980806 24.25,15.0059191 L24.25,15.0059191 L24.25,17.9940809 C24.25,19.1134452 23.352384,20 22.2451185,20 L22.2451185,20 L19.25,20 L19.25,13 Z M22.2510434,14 L20.25,14 L20.25,19 L22.2510434,19 C22.8027519,19 23.25,18.5562834 23.25,18.0001925 L23.25,14.9998075 C23.25,14.4476291 22.8073397,14 22.2510434,14 Z M13.25,13 L13.75,13 L15.25,16 L16.75,13 L17.25,13 L17.75,13 L17.75,20 L16.75,20 L16.75,15 L15.75,17 L15.25,17 L14.75,17 L13.75,15 L13.75,20 L12.75,20 L12.75,13 L13.25,13 L13.25,13 Z" id="icon" fill="#3B82F6" fill-rule="nonzero"></path>
    </g>
</svg>

<svg width="30" height="27" xmlns="http://www.w3.org/2000/svg"><path d="m13 0 6 7v3h7.993A2.996 2.996 0 0 1 30 12.999V20a3.003 3.003 0 0 1-3.007 3H19v2.01c0 1.092-.894 1.99-1.997 1.99H1.997A2 2 0 0 1 0 24.993V2.007C0 .898.897 0 2.003 0H13Zm-1 1H1.996C1.446 1 1 1.455 1 1.995v23.01c0 .55.455.995 1 .995h15c.552 0 1-.445 1-.993V23h-7.993A2.996 2.996 0 0 1 7 20.001V13a3.003 3.003 0 0 1 3.007-3H18V8h-4.002A1.995 1.995 0 0 1 12 5.994V1Zm1 .5v4.491c0 .557.45 1.009.997 1.009H17.7L13 1.5ZM9.995 11C8.893 11 8 11.9 8 12.992v7.016A2 2 0 0 0 9.995 22h17.01C28.107 22 29 21.1 29 20.008v-7.016A2 2 0 0 0 27.005 11H9.995Zm12.25 2c1.111 0 2.005.898 2.005 2.006v2.988c0 1.12-.898 2.006-2.005 2.006H19.25v-7Zm.006 1H20.25v5h2.001a.997.997 0 0 0 .999-1v-3c0-.552-.443-1-.999-1Zm-9.001-1h.5l1.5 3 1.5-3h1v7h-1v-5l-1 2h-1l-1-2v5h-1v-7h.5Z" fill="#3B82F6"/></svg>
